X: 1318
T: The Captain with his Whiskers
B: australian traditional tunes wiki
M:4/4
L:1/8
R: Set Tune
Q: 1/4=100
K:Dmaj
V:1 
|:DE|"D"F2F2FE DF|A2AB AF DF|"A7"A2GF GE CE|1"D"E2D2D2:|2"D"E2D2D2||
|:dc|"G"B2EFG2cB|"D"AF DFA2FG|"A7"A2GF GE CE|1"D"E2D2D2:|2"D"E2D2D2||
% abcbook-tune_id 6342d53a50ee2fa933726c13


% abcbook-boost 0
% abcbook-tablature 
% abcbook-transpose 
% abcbook-lastupdated 1665324358889
% abcbook-soundfonts 
% abcbook-repeats 1
% NFF Book 2015

